packages/foundations/assets/icons/functional/images/devices/camera_32_filled.svg

<svg width="32" height="32" viewBox="0 0 32 32" fill="none" xmlns="http://www.w3.org/2000/svg">
<g clip-path="url(#clip0_2204_2734)">
<path fill-rule="evenodd" clip-rule="evenodd" d="M19.1716 6.00121C19.9672 6.00121 20.7303 6.31728 21.2929 6.87989L23.415 9.00121L27.003 9.00524C28.5996 9.00685 30 10.5209 30 12.0012V22.9988C30 24.6557 28.6569 25.9988 27 25.9988H5C3.34315 25.9988 2 24.6557 2 22.9988V12.0052C2 10.3496 3.3413 9.00691 4.99697 9.00524L8.584 9.00121L10.7071 6.87989C11.2228 6.36416 12.0617 6.00121 12.83 6.00121H19.1716ZM16 12.0012C13.2386 12.0012 11 14.2398 11 17.0012C11 19.7626 13.2386 22.0012 16 22.0012C18.7614 22.0012 21 19.7626 21 17.0012C21 14.2398 18.7614 12.0012 16 12.0012ZM16 14.0012C17.6569 14.0012 19 15.3444 19 17.0012C19 18.6581 17.6569 20.0012 16 20.0012C14.3431 20.0012 13 18.6581 13 17.0012C13 15.3444 14.3431 14.0012 16 14.0012ZM8 13.0012H7C6.44772 13.0012 6 13.4489 6 14.0012C6 14.5535 6.44772 15.0012 7 15.0012H8C8.55228 15.0012 9 14.5535 9 14.0012C9 13.4489 8.55228 13.0012 8 13.0012Z" fill="#1A1C1F"/>
</g>
<defs>
<clipPath id="clip0_2204_2734">
<rect width="32" height="32" fill="white"/>
</clipPath>
</defs>
</svg>

<svg xmlns="http://www.w3.org/2000/svg" width="32" height="32" fill="none"><g clip-path="url(#a)"><path fill="#1A1C1F" fill-rule="evenodd" d="M19.172 6.001a3 3 0 0 1 2.12.879L23.416 9l3.588.004C28.6 9.007 30 10.521 30 12.001V23a3 3 0 0 1-3 3H5a3 3 0 0 1-3-3V12.005a3 3 0 0 1 2.997-3l3.587-.004 2.123-2.121C11.223 6.364 12.062 6 12.83 6zm-3.172 6a5 5 0 1 0 0 10 5 5 0 0 0 0-10m0 2a3 3 0 1 1 0 6 3 3 0 0 1 0-6m-8-1H7a1 1 0 1 0 0 2h1a1 1 0 1 0 0-2" clip-rule="evenodd"/></g><defs><clipPath id="a"><path fill="#fff" d="M0 0h32v32H0z"/></clipPath></defs></svg>
